X:1
T:Girona, SMD
T:Girona, SMD
T:Hubert Platt Main, 1902
T:Public Domain Courtesy of the Cyber Hymnal™
C:Hubert Platt Main, 1902
Z:Public Domain
Z:Courtesy of the Cyber Hymnal™
%%score ( 1 2 ) ( 3 4 )
L:1/8
Q:1/4=78
M:2/4
K:Bb
V:1 treble 
V:2 treble 
V:3 bass 
V:4 bass 
V:1
 [DF] | [DB]>[FB] [Ec][EA] | [DB]3 [Fc] | [Fd]>[Fd] [Fe][Fd] | [Fc]3 [Dd] | [DB]>[Gd] [Gc][=EB] | %6
 [FA][Fc] [FB][FA] | [FG]>[GB] [=EA][EG] | F3 F | [Fc]>[Fc] [FA]F | [FB]3 [DB] | %11
 [Ee]>[Fe] [Fd][Fd] | [Fc]3 [Gc] | [^Fd]>[Fc] [FB][FA] | G[F=B] [Ec][Fd] | [Ee]>[Ec] [DB][CA] | %16
 [DB]3 |] %17
V:2
 x | x4 | x4 | x4 | x4 | x4 | x4 | x4 | F3 F | x3 F | x4 | x4 | x4 | x4 | G x3 | x4 | x3 |] %17
V:3
 [B,,B,] | [B,,F,]>[D,B,] [F,A,][F,C] | [G,B,]3 [F,A,] | B,>B, [A,C]B, | [F,A,]3 [^F,A,] | %5
 G,>[F,=B,] [=E,C][C,C] | [F,C][E,A,] [D,B,][C,C] | [B,,D]>[G,,D] [C,C][C,B,] | [F,A,]3 F, | %9
 [F,A,]>[F,A,] [F,C][E,A,] | [D,B,]3 [_A,B,] | [G,B,]>[A,C] B,[B,,B,] | [F,A,]3 [E,A,] | %13
 [D,A,]>[D,E] [D,D][D,C] | [E,B,][D,G,] [C,G,][=B,,G,] | [C,G,]>[E,G,] F,F, | [B,,F,]3 |] %17
V:4
 x | x4 | x4 | B,>B, x/ B, x/ | x4 | G,3/2 x5/2 | x4 | x4 | x3 F, | x4 | x4 | x2 B, x | x4 | x4 | %14
 x4 | x2 F,F, | x3 |] %17

